!!!OTL@@FUR: Ce bielis maninis...
!!!OTL@IT: Che belle manine
!!!OTL@EN: What beautiful hands
**kern
*clefG2
*k[f#c#]
*D:
*M3/4
*MM60
*>[A]
*>A
4a
=1
4a
4.a
8a
=2
4a
4.f#
8a
=3
8.b
16a
4g
4f#
=4
2.e
=5
4b
4.b
8b
=6
4b
4a
4b
=7
4cc
4dd
4b
=8
2a
4f#
=9
2a
4f#
=10
2a
4a
=11
8.b
16a
4g
4f#
=12
2.e
=13
4b
4b
4b
=14
8b
16cc
16b
4a
4g
=15
4f#
4a
4dd
=16
2cc#
4cc#
=17
4cc#
4b
4cc#
=18
[2.dd
=19
4dd]
4r
==
*-
!!!ARE: Friuli
!!!ENC: Kelly Leistikow
!!!END: 2002/03/07
!!!ref: @{OTL@@FUR}/@{OTL@EN}
